lib/brands/icons/angel-list.svg

<svg xmlns="http://www.w3.org/2000/svg" fill="none" aria-hidden="true" viewBox="0 0 48 48"><g id="angel_list-Icon"><path id="bg" fill="black" d="M24 3C12.4172 3 3 12.4172 3 24C3 35.5828 12.4172 45 24 45C35.5828 45 45 35.5828 45 24C45 12.4172 35.5828 3 24 3Z"/><path id="angel_list" fill="white" d="M30.5988 21.949C31.758 22.1274 32.5606 22.6624 33.0064 23.3758C33.4523 24.0892 33.7198 25.3376 33.7198 26.9427C33.7198 30.1529 32.7389 32.828 30.7771 34.879C28.8153 36.9299 26.3185 38 23.2867 38C20.918 38 18.7237 37.1641 16.9555 35.5924C14.8986 33.7412 13.1451 29.9766 14.9937 27.3885C15.4395 26.7643 16.2421 26.4076 17.223 26.1401C17.0446 25.6943 16.8663 25.3376 16.7771 24.9809C16.4541 24.012 16.7565 23.2181 17.4905 22.4841C18.1316 21.843 18.9857 21.3774 19.8981 21.6815C20.1657 21.7707 20.4332 21.8599 20.7899 22.1274C19.9873 19.4522 19.1848 17.2229 18.7389 15.707C18.293 14.1911 18.1147 13.2102 18.1147 12.586C18.1147 11.1875 18.9417 10 20.4332 10C22.1274 10 22.7132 12.4206 24.8907 18.082C25.2422 18.9961 25.516 19.7197 25.6943 20.2548C25.8727 19.8981 26.051 19.2739 26.3185 18.5605C28.1911 13.2102 29.3305 10.8072 30.9024 10.6289C31.5226 10.5585 32.2039 10.7134 32.6497 11.1592C33.0064 11.6051 33.3689 12.2357 33.2739 12.9427C32.8243 16.289 31.6084 19.2231 30.5988 21.949ZM16.8663 29.7962C17.0446 29.9745 17.3122 30.3312 17.5797 30.7771C18.3822 31.9363 19.1848 32.5605 19.8981 32.5605C20.972 32.5605 20.8105 31.4951 20.4332 30.8662C19.7971 29.8061 18.989 28.7979 18.1147 27.9236C17.3557 27.3543 16.7055 27.3888 16.0637 28.1911C14.7868 29.7873 15.9107 32.3077 17.0446 33.6306C17.8472 34.5223 18.7389 35.3248 19.8981 35.8599C21.0574 36.3949 22.2166 36.6624 23.6434 36.6624C26.1402 36.6624 28.1911 35.7707 29.8854 33.8981C31.5797 32.0255 32.3822 29.707 32.3822 26.8535C32.3822 25.9618 32.293 25.3376 32.2039 24.8025C31.9418 23.23 29.8072 22.8696 28.5478 22.5732C27.0319 22.2166 25.4268 22.0382 23.8217 22.0382C23.0891 22.0382 22.5733 22.3236 22.5733 23.1083C22.5733 24 23.0192 24.6242 24 24.9809C24.9809 25.3376 26.586 25.6051 28.7262 25.6051C29.4077 25.6051 30.4454 25.7461 30.1529 26.4076C29.9164 26.9427 28.1536 27.2829 27.2994 27.9236C25.9688 28.8106 24.7134 30.5421 24.7134 32.2038C24.7134 33.2203 25.6365 35.0006 25.2485 35.1465C23.6966 35.73 23.465 32.252 23.465 31.4904C23.0569 31.8985 22.5586 31.8515 22.1274 31.6688C22.1274 32.4529 22.3649 33.0364 21.6816 33.7197C20.5459 34.8554 18.8291 33.9792 17.8472 33.0955C17.0446 32.293 16.5489 31.5428 16.5489 30.7402C16.5489 30.4019 16.6182 30.0443 16.8663 29.7962ZM23.2867 29.9745C24.2774 28.9838 22.2618 25.9403 21.6816 25.0701C21.0526 23.9693 19.804 22.4891 18.5606 23.7325C17.8319 24.4611 18.2042 25.3086 18.5606 26.1401C18.9172 26.7643 19.2739 27.3885 19.809 28.1019C20.3632 28.8409 22.1236 31.1376 23.2867 29.9745ZM24.5351 20.9682L22.395 14.9936C21.8599 13.4777 21.5032 12.4076 21.1465 11.9618C20.5476 10.9636 19.2739 11.1345 19.2739 12.4076C19.2739 13.0318 19.5414 14.0127 19.9873 15.4395C20.4332 16.8662 21.1465 18.8437 21.8907 21.2226C22.243 20.5181 23.9297 20.8672 24.5351 20.9682ZM26.6752 26.7643C25.6928 26.7643 24.5589 26.5955 23.6434 26.2293C23.9766 27.0624 24.3577 27.8391 24.5351 28.7261C25.127 27.9369 25.8935 27.3506 26.6752 26.7643ZM29.2612 21.5924C30.1529 19.2739 30.7771 17.3121 31.3122 15.7962C31.758 14.2803 32.0255 13.3885 32.0255 13.0318C32.0255 11.5616 30.6742 11.696 30.0637 12.7643C29.7071 13.3885 29.2612 14.2803 28.8153 15.6178L26.8536 21.1465L29.2612 21.5924Z"/></g></svg>

<svg xmlns="http://www.w3.org/2000/svg" fill="none" aria-hidden="true" viewBox="0 0 48 48"><path fill="#000" d="M24 3C12.417 3 3 12.417 3 24s9.417 21 21 21 21-9.417 21-21S35.583 3 24 3Z"/><path fill="#fff" d="M30.599 21.949c1.159.178 1.962.713 2.407 1.427.446.713.714 1.962.714 3.567 0 3.21-.981 5.885-2.943 7.936-1.962 2.05-4.459 3.121-7.49 3.121a9.405 9.405 0 0 1-6.331-2.408c-2.057-1.85-3.81-5.615-1.962-8.203.446-.625 1.248-.981 2.229-1.249-.178-.446-.357-.802-.446-1.16-.323-.968-.02-1.762.713-2.496.642-.641 1.496-1.107 2.408-.803.268.09.535.179.892.446-.803-2.675-1.605-4.904-2.051-6.42-.446-1.516-.624-2.497-.624-3.121 0-1.399.827-2.586 2.318-2.586 1.694 0 2.28 2.42 4.458 8.082.351.914.625 1.638.803 2.173.179-.357.357-.981.625-1.694 1.872-5.35 3.012-7.754 4.583-7.932.62-.07 1.302.084 1.748.53.356.446.719 1.077.624 1.784-.45 3.346-1.666 6.28-2.675 9.006Zm-13.733 7.847c.179.178.446.535.714.981.802 1.16 1.605 1.783 2.318 1.783 1.074 0 .913-1.065.535-1.694a15.542 15.542 0 0 0-2.318-2.942c-.76-.57-1.41-.535-2.051.267-1.277 1.596-.153 4.117.98 5.44.803.891 1.695 1.694 2.854 2.229 1.16.535 2.319.802 3.745.802 2.497 0 4.548-.891 6.242-2.764 1.695-1.873 2.497-4.191 2.497-7.045 0-.891-.089-1.515-.178-2.05-.262-1.573-2.397-1.933-3.656-2.23a20.762 20.762 0 0 0-4.726-.535c-.733 0-1.249.286-1.249 1.07 0 .892.446 1.516 1.427 1.873.98.357 2.586.624 4.726.624.682 0 1.72.141 1.427.803-.237.535-2 .875-2.854 1.516-1.33.887-2.586 2.618-2.586 4.28 0 1.016.924 2.797.535 2.943-1.551.583-1.783-2.895-1.783-3.657-.408.409-.906.362-1.338.179 0 .784.238 1.367-.445 2.05-1.136 1.136-2.853.26-3.835-.623-.802-.803-1.298-1.553-1.298-2.356 0-.338.07-.696.317-.944Zm6.42.178c.991-.99-1.024-4.034-1.604-4.904-.63-1.1-1.878-2.58-3.121-1.337-.73.728-.357 1.576 0 2.407.356.624.713 1.248 1.248 1.962.554.739 2.315 3.036 3.478 1.872Zm1.25-9.006-2.141-5.974c-.535-1.516-.892-2.586-1.248-3.032-.6-.998-1.873-.828-1.873.446 0 .624.267 1.605.713 3.032.446 1.426 1.16 3.404 1.904 5.783.352-.705 2.039-.356 2.644-.255Zm2.14 5.796c-.983 0-2.117-.168-3.033-.535.334.833.715 1.61.892 2.497.592-.79 1.358-1.375 2.14-1.962Zm2.585-5.172c.892-2.318 1.516-4.28 2.051-5.796.446-1.516.713-2.407.713-2.764 0-1.47-1.35-1.336-1.961-.268-.357.625-.803 1.516-1.249 2.854l-1.961 5.528 2.407.446Z"/></svg>
